_site/_assets/img/icons/s-linkedin.svg

<svg width="48" height="48" viewBox="0 0 48 48" fill="none" xmlns="http://www.w3.org/2000/svg">
<path fill-rule="evenodd" clip-rule="evenodd" d="M24 46C36.1503 46 46 36.1503 46 24C46 11.8497 36.1503 2 24 2C11.8497 2 2 11.8497 2 24C2 36.1503 11.8497 46 24 46ZM12.3043 19.4507H17.4484V34.9065H12.3043V19.4507ZM17.787 14.6697C17.7536 13.1542 16.67 12 14.9102 12C13.1505 12 12 13.1542 12 14.6697C12 16.1537 13.1165 17.3412 14.8434 17.3412H14.8763C16.67 17.3412 17.787 16.1537 17.787 14.6697ZM30.0774 19.0878C33.4624 19.0878 36.0001 21.2973 36.0001 26.0446L35.9999 34.9065H30.856V26.6376C30.856 24.5607 30.1117 23.1434 28.2495 23.1434C26.8283 23.1434 25.9819 24.0989 25.6101 25.0217C25.4741 25.3524 25.4407 25.8132 25.4407 26.2751V34.9069H20.296C20.296 34.9069 20.3638 20.9014 20.296 19.4511H25.4407V21.6403C26.1234 20.5879 27.3462 19.0878 30.0774 19.0878Z" fill="white"/>
</svg>

<svg width="48" height="48" fill="none" xmlns="http://www.w3.org/2000/svg"><path fill-rule="evenodd" clip-rule="evenodd" d="M24 46c12.15 0 22-9.85 22-22S36.15 2 24 2 2 11.85 2 24s9.85 22 22 22zM12.304 19.45h5.144v15.457h-5.144V19.45zm5.483-4.78C17.754 13.154 16.67 12 14.91 12 13.15 12 12 13.154 12 14.67c0 1.484 1.117 2.671 2.843 2.671h.033c1.794 0 2.911-1.187 2.911-2.671zm12.29 4.418c3.385 0 5.923 2.21 5.923 6.957v8.861h-5.144v-8.268c0-2.077-.744-3.495-2.607-3.495-1.42 0-2.267.956-2.639 1.879-.136.33-.17.791-.17 1.253v8.632h-5.144s.068-14.006 0-15.456h5.145v2.19c.682-1.053 1.905-2.553 4.636-2.553z" fill="#fff"/></svg>
